src/assets/images/svg/lock-icon.svg

<?xml version="1.0" encoding="UTF-8"?>
<svg width="10px" height="12px" viewBox="0 0 10 12" version="1.1" xmlns="http://www.w3.org/2000/svg" xmlns:xlink="http://www.w3.org/1999/xlink">
    <!-- Generator: Sketch 48.2 (47327) - http://www.bohemiancoding.com/sketch -->
    <title>lock-icon</title>
    <desc>Created with Sketch.</desc>
    <defs></defs>
    <g id="Feedback" stroke="none" stroke-width="1" fill="none" fill-rule="evenodd" transform="translate(-1096.000000, -366.000000)">
        <g id="feedback_1" fill="#545454" fill-rule="nonzero">
            <g id="right-sub-panel" transform="translate(576.000000, 288.000000)">
                <g id="dinesh" transform="translate(1.000000, 48.000000)">
                    <g id="tag_feedback" transform="translate(519.000000, 24.000000)">
                        <g id="lock-icon" transform="translate(0.000000, 6.000000)">
                            <path d="M5,0 C3.22479902,0 1.78571429,1.51103897 1.78571429,3.375 L1.78571429,5.25 L1.42857143,5.25 C0.639593215,5.25 0,5.92157288 0,6.75 L0,10.5 C0,11.3284271 0.639593215,12 1.42857143,12 L8.57142857,12 C9.36040679,12 10,11.3284271 10,10.5 L10,6.75 C10,5.92157288 9.36040679,5.25 8.57142857,5.25 L8.21428571,5.25 L8.21428571,3.375 C8.21428571,1.51103897 6.77520098,0 5,0 Z M6.5,5 L3.5,5 L3.5,3.33333333 C3.5,2.59695367 4.17157288,2 5,2 C5.82842712,2 6.5,2.59695367 6.5,3.33333333 L6.5,5 Z" id="Shape"></path>
                        </g>
                    </g>
                </g>
            </g>
        </g>
    </g>
</svg>

<?xml version="1.0" encoding="UTF-8"?>
<svg version="1.1" viewBox="0 0 10 12" xmlns="http://www.w3.org/2000/svg">
    <g transform="translate(-1096 -366)" fill="none" fill-rule="evenodd">
        <g fill="#545454" fill-rule="nonzero">
            <g transform="translate(576 288)">
                <g transform="translate(1 48)">
                    <g transform="translate(519 24)">
                        <g transform="translate(0 6)">
                            <path d="m5 0c-1.7752 0-3.2143 1.511-3.2143 3.375v1.875h-0.35714c-0.78898 0-1.4286 0.67157-1.4286 1.5v3.75c0 0.82843 0.63959 1.5 1.4286 1.5h7.1429c0.78898 0 1.4286-0.67157 1.4286-1.5v-3.75c0-0.82843-0.63959-1.5-1.4286-1.5h-0.35714v-1.875c0-1.864-1.4391-3.375-3.2143-3.375zm1.5 5h-3v-1.6667c0-0.73638 0.67157-1.3333 1.5-1.3333s1.5 0.59695 1.5 1.3333v1.6667z"/>
                        </g>
                    </g>
                </g>
            </g>
        </g>
    </g>
</svg>
